!! 00048] TT[KA
!! NN
!!!OTL: Lisanbao
!!!ARE: Asia, China,Zhejiang, Changhua
!! Ethnic Group: Han
!! III, 613 (2)
!!!SCT: C0358
!!!YEM: Copyright 1995, estate of Helmut Schaffrath.
**kern
*ICvox
*Ivox
*M2/4
*k[f#]
*G:
{16dd
16b
16b
16a
8b
8b
=1
16a
16b
16a
16g
4a}
=2
{16dd
16b
16b
16a
8b
8b
=3
16g
16a
16g
16b
4a}
=4
{8a
8b
8a
8b
=5
16b
16a
16g
16b
4a}
=6
{8a
8b
8a
8b
=7
8b
8ee
16ee
16dd
8b}
=8
{8a
8b
8r
8dd
=9
16b
16a
8g
4a}
=10
{16g
16a
16g
16a
4b
=11
16b
16dd
16b
16g
8.a
16b
=12
4a}
{16f#
16a
16f#
16d
=13
2e}
==
!!!AGN: Xiaodiao
!! Witz ueber eine Faulenzer. Fuellwoerter imitieren den Klang der
!!    Suona. Ironisch.
!!!ONB: ESAC (Essen Associative Code) Database: CHINA_050
!!!AMT: simple duple
!!!AIN: vox
!!!EED: Helmut Schaffrath
!!!EEV: 1.0
*-
